asset_auto_exported/icn_tv_sports.svg

<?xml version="1.0" encoding="UTF-8"?>
<svg width="24px" height="24px" viewBox="0 0 24 24" version="1.1" xmlns="http://www.w3.org/2000/svg" xmlns:xlink="http://www.w3.org/1999/xlink">
    <title>icn_tv_sports</title>
    <g id="Quique" stroke="none" stroke-width="1" fill="none" fill-rule="evenodd">
        <g id="Assets/Global/24/TvSports" fill="#000000" fill-rule="nonzero">
            <g id="-----ICON-LAYERS-----">
                <path d="M12,-0.0005 C18.627,-0.0005 24,5.3725 24,11.9995 C24,18.6275 18.627,23.9995 12,23.9995 C5.373,23.9995 0,18.6275 0,11.9995 C0,5.3725 5.373,-0.0005 12,-0.0005 Z M15.8505406,5.11309037 L8.07347222,5.11309054 L7.96690839,5.11672529 C7.81965043,5.12894342 7.65302714,5.17246761 7.48295134,5.26912435 C7.32794484,5.35721695 7.19904232,5.47714477 7.10341695,5.6255079 C6.721442,5.36689844 6.28807817,5.22587845 5.80773888,5.32552331 C4.64497793,5.56664154 4.39160483,6.54156426 4.83941324,8.62993192 C5.00148872,9.38266477 5.32012114,10.0043295 5.74973372,10.5018962 C6.14408196,10.9586206 6.54542907,11.2288727 6.83641572,11.3542751 C7.09001115,11.4635636 7.38418667,11.3465797 7.49347514,11.0929843 C7.60276361,10.8393889 7.48577971,10.5452133 7.23218428,10.4359249 C7.07011313,10.3660793 6.79187353,10.1787232 6.50663506,9.84836707 C6.18409235,9.47480606 5.94294049,9.00430901 5.81709776,8.41985387 C5.47073781,6.8045932 5.5772953,6.39458393 6.01082365,6.30468446 C6.2359476,6.25798322 6.56239492,6.43690321 6.80854476,6.67123785 C6.83162206,6.69320744 6.85625017,6.71253846 6.88205647,6.72924008 L6.88205647,6.72924008 L6.87249321,6.98972057 C6.84878645,8.0113697 6.97564618,8.76194897 7.44731773,9.59947973 L7.44731773,9.59947973 L7.56574568,9.79731918 C8.10334557,10.6438157 8.95948979,11.3491903 10.1804797,11.8892079 L10.1804797,11.8892079 L10.442,11.999 L10.442,14.292 L10.3185078,14.3317905 L10.0327266,14.4323514 C9.74757407,14.5401409 9.46534829,14.6699019 9.19541814,14.8242085 C8.6978307,15.1086562 8.28234469,15.4534568 7.97849699,15.8689415 L7.97849699,15.8689415 L7.7192,15.8692 L7.60245561,15.875927 C7.10466495,15.9336864 6.7192,16.3563188 6.7192,16.8692 L6.7192,16.8692 L6.7192,17.8872 L6.72591825,18.0038301 C6.78360434,18.5012019 7.20574467,18.8872 7.7192,18.8872 L7.7192,18.8872 L16.1982,18.8872 L16.3147948,18.8804702 C16.812037,18.8226883 17.1982,18.3999036 17.1982,17.8872 L17.1982,17.8872 L17.1982,16.8692 L17.1914702,16.7526052 C17.1336883,16.255363 16.7109036,15.8692 16.1982,15.8692 L16.1982,15.8692 L15.9454554,15.868886 C15.6414955,15.4533041 15.2257751,15.1084525 14.7278674,14.8239808 L14.7278674,14.8239808 L14.4541267,14.6778107 C14.176981,14.539629 13.8906611,14.4251263 13.6045378,14.3317296 L13.6045378,14.3317296 L13.481,14.293 L13.481,11.999 L13.7427121,11.8892446 C15.0582215,11.3077109 15.9504354,10.534409 16.4772119,9.59959153 C16.9885456,8.69217876 17.0949427,7.88682071 17.0435467,6.72830313 L17.0435467,6.72830313 L17.0402576,6.6569675 C17.288139,6.42627267 17.6071451,6.25896688 17.8246574,6.30408053 C18.2195716,6.38662463 18.3427372,6.73598251 18.0974999,8.0251344 L18.0974999,8.0251344 L18.0173241,8.41961748 C17.8917636,9.0042688 17.6506465,9.47506633 17.3279901,9.84891926 C17.0429883,10.1791427 16.764971,10.3665358 16.603022,10.4364515 C16.3494966,10.5459022 16.2327009,10.8401525 16.3421515,11.093678 C16.4516022,11.3472034 16.7458525,11.4639991 16.999378,11.3545485 C17.290084,11.2290464 17.6910492,10.9587823 18.0850299,10.502288 C18.5147894,10.0043378 18.833389,9.38225012 18.9950535,8.62948685 C19.4427944,6.54248773 19.1897799,5.56780371 18.0284975,5.32507664 C17.578908,5.23182801 17.1637002,5.35298489 16.7955283,5.58572555 C16.7017329,5.45531492 16.5822835,5.34898753 16.4412719,5.26896716 C16.2285685,5.1482636 16.0212971,5.11050531 15.8505406,5.11309037 L15.8505406,5.11309037 Z M16.1982,16.8692 L16.1982,17.8872 L7.7192,17.8872 L7.7192,16.8692 L16.1982,16.8692 Z M15.865,6.112 L15.9139927,6.12385415 L15.9477281,6.13868813 C16.000287,6.16851391 16.032,6.22437786 16.032,6.3991 L16.032,6.3991 L16.032375,6.46473391 L16.0526886,7.01252016 C16.0719853,7.86762039 15.9701728,8.46242333 15.6060116,9.1086638 C15.1270715,9.95859087 14.2384745,10.6644749 12.8091624,11.1875557 C12.6120699,11.259685 12.481,11.4472236 12.481,11.6571 L12.481,11.6571 L12.481,14.6771 L12.488641,14.7644275 C12.5238358,14.9634666 12.6773479,15.1254602 12.8810751,15.1670133 C12.9571014,15.1825199 13.1028681,15.2199012 13.2942302,15.2823658 C13.6153085,15.3871725 13.9360373,15.5232855 14.2317902,15.6922592 C14.3306956,15.7487672 14.4246355,15.8077475 14.513258,15.869161 L14.513258,15.869161 L9.41096058,15.8688723 C9.49936942,15.8076016 9.59306717,15.7487538 9.69170441,15.6923674 C9.98736448,15.5233523 10.3079919,15.3872072 10.628968,15.2823769 C10.8202664,15.2198991 10.9659818,15.1825111 11.041975,15.1670031 C11.2747824,15.1194938 11.442,14.9147056 11.442,14.6771 L11.442,14.6771 L11.442,11.6571 L11.434167,11.5688036 C11.4032143,11.39603 11.2828151,11.2494261 11.1139116,11.1875828 C9.68536725,10.6645276 8.79728544,9.95868258 8.31864399,9.1087756 C7.92163355,8.40381796 7.83665034,7.76004133 7.88046112,6.77278654 L7.88046112,6.77278654 L7.88822401,6.59544148 L7.89559054,6.32113753 C7.9041404,6.20629154 7.93342526,6.1633228 7.97704866,6.13853094 L7.97704866,6.13853094 L8.01051941,6.12379058 L8.058,6.112 L15.865,6.112 Z" id="Combined-Shape"></path>
            </g>
        </g>
    </g>
</svg>

<svg width="24" height="24" viewBox="0 0 24 24" xmlns="http://www.w3.org/2000/svg"><path d="M12 0c6.627 0 12 5.372 12 12s-5.373 12-12 12S0 18.628 0 12 5.373 0 12 0zm3.85 5.113H8.074l-.106.004a1.173 1.173 0 00-.484.152 1.084 1.084 0 00-.38.357c-.382-.26-.815-.4-1.295-.3-1.163.24-1.416 1.216-.969 3.304a4.16 4.16 0 00.91 1.872c.395.457.796.727 1.087.852a.5.5 0 10.396-.918c-.162-.07-.44-.257-.725-.588a3.163 3.163 0 01-.69-1.428c-.346-1.615-.24-2.025.194-2.115.225-.047.551.132.798.366a.503.503 0 00.073.058l-.01.26c-.023 1.022.104 1.773.575 2.61l.119.198c.537.847 1.393 1.552 2.614 2.092l.262.11v2.293l-.123.04-.286.1a5.873 5.873 0 00-.838.392c-.497.285-.913.63-1.217 1.045H7.72l-.117.007a1 1 0 00-.883.993v1.018l.007.117a1 1 0 00.993.883h8.48l.116-.007a1 1 0 00.883-.993V16.87l-.007-.116a1 1 0 00-.993-.884h-.253c-.304-.416-.72-.76-1.217-1.045l-.274-.146a6.261 6.261 0 00-.85-.346l-.123-.039v-2.294l.262-.11c1.315-.581 2.207-1.355 2.734-2.29.512-.907.618-1.712.567-2.87l-.004-.072c.248-.23.567-.398.785-.353.395.083.518.432.272 1.721l-.08.395a3.162 3.162 0 01-.689 1.429c-.285.33-.563.518-.725.587a.5.5 0 00.396.919c.291-.126.692-.396 1.086-.853a4.16 4.16 0 00.91-1.873c.448-2.087.195-3.061-.967-3.304-.45-.093-.864.028-1.232.26a1.158 1.158 0 00-.945-.473v.001zm.348 11.756v1.018H7.72V16.87h8.48zm-.333-10.757l.049.012.034.015c.052.03.084.085.084.26v.066l.02.548c.02.855-.082 1.45-.446 2.096-.479.85-1.368 1.555-2.797 2.079a.5.5 0 00-.328.47v3.02l.008.086a.5.5 0 00.392.403 5.076 5.076 0 011.35.525c.1.057.194.116.282.177H9.411c.088-.061.182-.12.28-.177a5.072 5.072 0 011.351-.525.5.5 0 00.4-.49v-3.02l-.008-.088a.5.5 0 00-.32-.381c-1.429-.523-2.317-1.23-2.795-2.08-.397-.704-.482-1.348-.439-2.335l.008-.178.008-.274c.008-.115.037-.158.081-.182l.034-.015.047-.012h7.807z" fill="#000" fill-rule="nonzero"/></svg>
